Newaita-dark/actions/scalable/media-seek-backward.svg

<?xml version="1.0" encoding="UTF-8"?>
<svg xmlns="http://www.w3.org/2000/svg" xmlns:xlink="http://www.w3.org/1999/xlink" width="512pt" height="512pt" viewBox="0 0 512 512" version="1.1">
<g id="surface1">
<path style=" stroke:none;fill-rule:nonzero;fill:rgb(74.117649%,74.117649%,74.117649%);fill-opacity:1;" d="M 254.023438 25.167969 C 125.023438 25.167969 21.167969 129.023438 21.167969 258.023438 C 21.167969 387.027344 125.023438 490.878906 254.023438 490.878906 C 383.027344 490.878906 486.878906 387.027344 486.878906 258.023438 C 486.878906 129.023438 383.027344 25.167969 254.023438 25.167969 Z M 254.023438 56.921875 C 365.433594 56.921875 455.125 146.613281 455.125 258.023438 C 455.125 369.433594 365.433594 459.125 254.023438 459.125 C 142.613281 459.125 52.921875 369.433594 52.921875 258.023438 C 52.921875 146.613281 142.613281 56.921875 254.023438 56.921875 Z M 254.023438 56.921875 "/>
<path style="fill:none;stroke-width:31.75;stroke-linecap:round;stroke-linejoin:round;stroke:rgb(25.882354%,64.705884%,96.078432%);stroke-opacity:1;stroke-miterlimit:4;" d="M 338.666878 -41.66499 L 338.666878 127.666496 L 253.999182 74.749674 L 253.999182 127.666496 L 137.584518 42.9988 L 253.999182 -41.66499 L 253.999182 11.251832 Z M 338.666878 -41.66499 " transform="matrix(1.000095,0,0,1.000095,0,215.020531)"/>
</g>
</svg>

<svg xmlns="http://www.w3.org/2000/svg" width="512pt" height="512pt" viewBox="0 0 512 512"><path d="M254.023 25.168c-129 0-232.855 103.855-232.855 232.855 0 129.004 103.855 232.856 232.855 232.856 129.004 0 232.856-103.852 232.856-232.856 0-129-103.852-232.855-232.856-232.855zm0 31.754c111.41 0 201.102 89.691 201.102 201.101s-89.691 201.102-201.102 201.102c-111.41 0-201.101-89.691-201.101-201.102 0-111.41 89.691-201.101 201.101-201.101zm0 0" fill="#bdbdbd"/><path d="M338.7 173.352v169.347l-84.677-52.922V342.7l-116.425-84.676 116.425-84.671v52.921zm0 0" fill="none" stroke-width="31.752857499999998" stroke-linecap="round" stroke-linejoin="round" stroke="#42a5f5"/></svg>
